X:82
T: Eischterliedji
N: D0092
O: Europa, Mitteleuropa,Schweiz, Kt. Wallis, Brigersberg
R: Jodel - Lied
M: 4/4
L: 1/16
K: G
G3A | B4B4B3AB3c | d4d4z4
e3d | d4c4e2d2c4 | B8z4
G3A | B4B4B3AB3c | d4d4z4
e3d | d4c4e2d2c4 | B8z4

@@@ Tune index: 2604
